X: 2
T: Missa Dominicalis / Gloria
N: Derived from Ort1001b-Missa_Dominicalis-Gloria.krn
C: Marbrianus de Orto
%%abc-version 2.0
%%abcx-abcm2ps-target-version 5.9.1 (29 Sep 2008)
%%abc-creator hum2abc beta
%%abcx-conversion-date 2019/02/17 07:28:36
%%abc-edited-by Jesse Rodin
%%abc-edited-by Jesse Rodin 8/11/2013
%%abcx-initial-encoding-date 2013/08/11/
%%humdrum-veritas 1919222839
%%humdrum-veritas-data 4055935841
%%linebreak <none>
%%barnumbers 0
L: 1/4
M: 4/2
Q: 1/2=120
%%staves [1 2 3 4]
V: 1 clef=treble
V: 2 clef=treble-8
V: 3 clef=treble-8
V: 4 clef=bass
K: F
[V:1] z8 | 
[V:2] F2G2A2c2- | 
[V:3] z8 | 
[V:4] z4F,4 | 
[V:1] z8 | 
[V:2] c2B2c2BA | 
[V:3] z8 | 
[V:4] G,4A,4 | 
[V:1] z2F2G2A2 | 
[V:2] G2d3ef2 | 
[V:3] z8 | 
[V:4] B,6A,2 | 
[V:1] B4A4 | 
[V:2] g2d3ef2 | 
[V:3] z4F4 | 
[V:4] G,4D,4 | 
[V:1] G2c3BG2- | 
[V:2] B2A2d4- | 
[V:3] G2A2B4 | 
[V:4] E,2F,2G,4 | 
[V:1] G2^F2G3=F | 
[V:2] d4B2d2- | 
[V:3] A4G4 | 
[V:4] D,4z2G,2 | 
[V:1] D4z4 | 
[V:2] d2G2A2F2 | 
[V:3] G4c4 | 
[V:4] B,3A,F,2A,2- | 
[V:1] G4c4 | 
[V:2] G4z4 | 
[V:3] B4A4 | 
[V:4] A,G,G,4^F,2 | 
[V:1] B2d3cc2- | 
[V:2] d2g3ef2 | 
[V:3] B4c4 | 
[V:4] G,4A,4 | 
[V:1] c2=B2c3_B | 
[V:2] g3fg2a2 | 
[V:3] d4c4 | 
[V:4] G,4C,2F,2- | 
[V:1] A2G2A2B2 | 
[V:2] f2d2f2B2 | 
[V:3] z2B2A2G2 | 
[V:4] F,2G,2F,2G,2 | 
[V:1] A2G2c2d2- | 
[V:2] d2G2A2Bc | 
[V:3] A2B2A2G2 | 
[V:4] D,2D2C2B,2- | 
[V:1] dcA2c2B2 | 
[V:2] def4de | 
[V:3] G2F2A2B2 | 
[V:4] B,2C2F,2G,2 | 
[V:1] AGFED2G2- | 
[V:2] fga2z2d2- | 
[V:3] c2d3cB2 | 
[V:4] F,2D,2E,4 | 
[V:1] G2^F2G4 | 
[V:2] d6B2- | 
[V:3] A4G4 | 
[V:4] D,4z4 | 
[V:1] z8 | 
[V:2] B2AGF2c2 | 
[V:3] z8 | 
[V:4] G,4A,4 | 
[V:1] z8 | 
[V:2] d2f4e2 | 
[V:3] z8 | 
[V:4] G,2F,2G,4 | 
[V:1] z2F2G2A2 | 
[V:2] a3ge2d2- | 
[V:3] z8 | 
[V:4] F,4z4 | 
[V:1] B4A4 | 
[V:2] d2g4^f2 | 
[V:3] z8 | 
[V:4] G,4D4 | 
[V:1] G4z4 | 
[V:2] g4z4 | 
[V:3] z2G4A2 | 
[V:4] _E3DB,2C2 | 
[V:1] z8 | 
[V:2] z8 | 
[V:3] B2c3BAG | 
[V:4] G,2A,3G,F,E, | 
[V:1] z4D3E | 
[V:2] z8 | 
[V:3] A2c2B4 | 
[V:4] F,2A,4G,2 | 
[V:1] F2E2F2G2 | 
[V:2] c2c2d3e | 
[V:3] A4z2B2 | 
[V:4] A,4D,2G,2 | 
[V:1] A2B3AG2 | 
[V:2] f2B2d2G2 | 
[V:3] A2G2B2c2 | 
[V:4] F,2G,3F,E,2 | 
[V:1] F4z2G2- | 
[V:2] A2B2c4 | 
[V:3] d4_e3d | 
[V:4] D,4C,3D, | 
[V:1] G2G2z2G2- | 
[V:2] z2_e2d2_e2 | 
[V:3] B2c2B2c2 | 
[V:4] E,2C,2G,2C,2 | 
[V:1] G2G2z2G2- | 
[V:2] B3cd2B2 | 
[V:3] d2e2f2d2 | 
[V:4] G,3F,/E,/D,2G,2 | 
[V:1] G2G2F3G | 
[V:2] c4A4 | 
[V:3] e4d3e | 
[V:4] C,4D,2F,2- | 
[V:1] ABc3BG2 | 
[V:2] z2a4d2 | 
[V:3] f3ec2d2 | 
[V:4] F,2F,2A,2B,2 | 
[V:1] d3cA2c2 | 
[V:2] g4z2a2 | 
[V:3] Bcdef3e | 
[V:4] G,4F,4 | 
[V:1] B2A3GG2- | 
[V:2] g2f3e/d/c2 | 
[V:3] d2c2d2G2 | 
[V:4] G,2A,2D,2E,2 | 
[V:1] G2^F2G4 | 
[V:2] d4B3c | 
[V:3] A4G4 | 
[V:4] D,4z4 | 
[V:1] z8 | 
[V:2] d2g3fe2 | 
[V:3] z8 | 
[V:4] G,4C4 | 
[V:1] z8 | 
[V:2] d2f3edc | 
[V:3] z8 | 
[V:4] B,2A,2B,2C2- | 
[V:1] z8 | 
[V:2] d4c2g2- | 
[V:3] z8 | 
[V:4] C2=B,2C4 | 
[V:1] z8 | 
[V:2] g2f2Bcde | 
[V:3] z8 | 
[V:4] B,2A,2G,4 | 
[V:1] z8 | 
[V:2] fga3gg2- | 
[V:3] z8 | 
[V:4] A,4B,4 | 
[V:1] z8 | 
[V:2] g2^f2g4 | 
[V:3] z8 | 
[V:4] A,4G,4 | 
[V:1] z2G2G2G2 | 
[V:2] z2G2G2c2 | 
[V:3] z2G2B2G2 | 
[V:4] z2_E,2E,2E,2 | 
[V:1] F3GA4 | 
[V:2] d4e2f2 | 
[V:3] A3Bc2d2- | 
[V:4] D,4z4 | 
[V:1] B4A2c2- | 
[V:2] g4f2gf | 
[V:3] d2G2d2e2- | 
[V:4] G,4D,2C,2- | 
[V:1] cBG2A4 | 
[V:2] edc2d4 | 
[V:3] efg4^f2 | 
[V:4] C,D,E,2D,4 | 
[V:1] G4c4 | 
[V:2] B4_e4 | 
[V:3] g8- | 
[V:4] G,4C,4 | 
[V:1] B3cd2c2- | 
[V:2] d2g4e2 | 
[V:3] g8- | 
[V:4] G,3A,B,2C2 | 
[V:1] c2=B2c4 | 
[V:2] d4c2e2- | 
[V:3] g8 | 
[V:4] G,4C,4 | 
[V:1] B4A4 | 
[V:2] efg4f2 | 
[V:3] G4c2A2 | 
[V:4] _E,4F,4 | 
[V:1] G4A4 | 
[V:2] d4z2f2 | 
[V:3] B2AGF4 | 
[V:4] G,4D,4 | 
[V:1] B4A4 | 
[V:2] d3ef2F2 | 
[V:3] G2B2c2d2 | 
[V:4] z2G,2F,4 | 
[V:1] G4F4 | 
[V:2] G4A2d2- | 
[V:3] _e2c2d2A2 | 
[V:4] C,2E,2D,4 | 
[V:1] G4A4- | 
[V:2] d2e2c2f2- | 
[V:3] B2c4d2 | 
[V:4] G,2C,2F,2D,2 | 
[V:1] A4B3A/G/ | 
[V:2] f2f2g2G2 | 
[V:3] c2d2G2d2- | 
[V:4] F,4z2G,2 | 
[V:1] F2G4^F2 | 
[V:2] B2c2d4 | 
[V:3] d2G2A4 | 
[V:4] D,2E,2D,4 | 
[V:1] G2FED2CD | 
[V:2] B2G2g4- | 
[V:3] G4G4 | 
[V:4] _E,2D,C,B,,2C,2- | 
[V:1] EFG4A2 | 
[V:2] g2c2e2f2 | 
[V:3] c4B2A2 | 
[V:4] C,D,E,F,G,2F,2 | 
[V:1] D2d2c2e2- | 
[V:2] z2d2e2g2- | 
[V:3] B4c4 | 
[V:4] G,4z4 | 
[V:1] edd4^c2 | 
[V:2] gfd2e4 | 
[V:3] B4A4 | 
[V:4] z8 | 
[V:1] d3Bc2A2 | 
[V:2] z2d2e2f2 | 
[V:3] G4z2A2 | 
[V:4] B,4A,2F,2 | 
[V:1] G2D2E2F2 | 
[V:2] d4z4 | 
[V:3] B4A4 | 
[V:4] G,4C,2D,2 | 
[V:1] G2D2z2G2 | 
[V:2] z4d3e | 
[V:3] G4G4 | 
[V:4] E,F,G,2B,4 | 
[V:1] A3BcAG2 | 
[V:2] fga4d2 | 
[V:3] F3GA2B2 | 
[V:4] CB,A,G,F,2G,2 | 
[V:1] z2c2B2A2 | 
[V:2] f4d2f2- | 
[V:3] A4G2d2- | 
[V:4] D,2F,2G,2D,2- | 
[V:1] d3cA4 | 
[V:2] f2d2c2f2 | 
[V:3] def3ec2 | 
[V:4] D,2D,2F,2A,2 | 
[V:1] B2A2B2G2 | 
[V:2] g2f2g4- | 
[V:3] d3cd2e2- | 
[V:4] G,2D,2G,2C,2- | 
[V:1] c3BAGG2- | 
[V:2] g2e3dc2 | 
[V:3] edc3BG2 | 
[V:4] C,6E,2 | 
[V:1] G2^F2G4 ||  
[V:2] d8 ||  
[V:3] A4G4 ||  
[V:4] D,4G,4 ||  
[V:1]  [K:F] [K:clef=treble][M:2/1]A8- | 
[V:2]  [K:F] [K:clef=treble-8][M:2/1]d6c2- | 
[V:3]  [K:F] [K:clef=treble-8][M:2/1]z8 | 
[V:4]  [K:F] [K:clef=bass][M:2/1]z8 | 
[V:1] A8 | 
[V:2] c2d4cB | 
[V:3] z8 | 
[V:4] z8 | 
[V:1] F8 | 
[V:2] A4d4 | 
[V:3] z8 | 
[V:4] D,4D,4 | 
[V:1] G8 | 
[V:2] B2c4BA | 
[V:3] z8 | 
[V:4] _E,4C,2E,2- | 
[V:1] G8 | 
[V:2] G2B3cd2- | 
[V:3] z8 | 
[V:4] E,F,G,2_E,2B,2- | 
[V:1] z4G4 | 
[V:2] d2f2e4 | 
[V:3] z8 | 
[V:4] B,CD4C2 | 
[V:1] F4A4 | 
[V:2] d4f4 | 
[V:3] z8 | 
[V:4] D8 | 
[V:1] B4A2B2- | 
[V:2] e2d4g2- | 
[V:3] z8 | 
[V:4] G,4z4 | 
[V:1] BAGFG4 | 
[V:2] gfede4 | 
[V:3] z8 | 
[V:4] z4C,4 | 
[V:1] F4z4 | 
[V:2] z2f3edc | 
[V:3] z8 | 
[V:4] D,4D,4 | 
[V:1] G4G4 | 
[V:2] B3cd2G2 | 
[V:3] z8 | 
[V:4] _E,3F,G,A,B,2- | 
[V:1] F4A4 | 
[V:2] d4z4 | 
[V:3] z8 | 
[V:4] B,2A,G,^F,4 | 
[V:1] B4A4 | 
[V:2] d4c2d2- | 
[V:3] z8 | 
[V:4] G,4z4 | 
[V:1] d4c2d2- | 
[V:2] d2B2A2G2 | 
[V:3] z8 | 
[V:4] z8 | 
[V:1] d2B2A4 | 
[V:2] z2g4^f2 | 
[V:3] z8 | 
[V:4] z4D4 | 
[V:1] G8 | 
[V:2] g4z4 | 
[V:3] G8 | 
[V:4] G,2B,4A,G, | 
[V:1] z8 | 
[V:2] z8 | 
[V:3] A4F4 | 
[V:4] F,3G,A,4 | 
[V:1] z8 | 
[V:2] z8 | 
[V:3] G4G4 | 
[V:4] G,2B,3CD2 | 
[V:1] z8 | 
[V:2] z8 | 
[V:3] G4F4 | 
[V:4] _E2D3CA,2 | 
[V:1] z8 | 
[V:2] z8 | 
[V:3] A4B4 | 
[V:4] C2B,A,G,2D2- | 
[V:1] z8 | 
[V:2] z8 | 
[V:3] A4G4 | 
[V:4] D2C2_EDCB, | 
[V:1] z8 | 
[V:2] z8 | 
[V:3] F4z4 | 
[V:4] A,4z4 | 
[V:1] F8- | 
[V:2] d8- | 
[V:3] A8- | 
[V:4] D,8- | 
[V:1] F4F4 | 
[V:2] d4d4 | 
[V:3] A8 | 
[V:4] D,4D,4 | 
[V:1] A8 | 
[V:2] d8 | 
[V:3] F8 | 
[V:4] D,8 | 
[V:1] z4B4- | 
[V:2] B8 | 
[V:3] G8 | 
[V:4] _E,8- | 
[V:1] B4B4 | 
[V:2] _e6dc | 
[V:3] G4G4- | 
[V:4] E,4_E,4 | 
[V:1] B4B4 | 
[V:2] B8 | 
[V:3] G4G4 | 
[V:4] _E,4E,4 | 
[V:1] c8 | 
[V:2] _e8 | 
[V:3] G4G4 | 
[V:4] C,8 | 
[V:1] A8 | 
[V:2] d4f4- | 
[V:3] F8 | 
[V:4] D,8- | 
[V:1] d6cB | 
[V:2] f4d4 | 
[V:3] A4B4 | 
[V:4] D,4G,4 | 
[V:1] A8 | 
[V:2] f6g2 | 
[V:3] c4d4- | 
[V:4] F,4D,4 | 
[V:1] F6G2 | 
[V:2] a8 | 
[V:3] d2cBA4 | 
[V:4] D,4F,4- | 
[V:1] A2B2c4 | 
[V:2] z4e4 | 
[V:3] c6A2 | 
[V:4] F,2G,2A,4 | 
[V:1] B4A4- | 
[V:2] g4f4 | 
[V:3] d8 | 
[V:4] z4D,4 | 
[V:1] A2G2G4- | 
[V:2] d4e4 | 
[V:3] B4c4 | 
[V:4] G,4C,4 | 
[V:1] G4^F4 | 
[V:2] d8 | 
[V:3] A8 | 
[V:4] D,8 | 
[V:1] G8 | 
[V:2] B4d4 | 
[V:3] G8 | 
[V:4] z4G,4 | 
[V:1] z4G4 | 
[V:2] _e4d4 | 
[V:3] z8 | 
[V:4] C4B,4 | 
[V:1] c4B4 | 
[V:2] c4d4 | 
[V:3] z4G4 | 
[V:4] A,4z2G,2 | 
[V:1] A4B4 | 
[V:2] z2f4e2 | 
[V:3] c4B4 | 
[V:4] F,4G,4 | 
[V:1] c4B4 | 
[V:2] a2f4e2 | 
[V:3] A4B4 | 
[V:4] F,4G,4 | 
[V:1] A4G4 | 
[V:2] f4d4 | 
[V:3] c4B4 | 
[V:4] F,4G,4 | 
[V:1] A4B4 | 
[V:2] z2d4B2 | 
[V:3] A4G4 | 
[V:4] D,4z2G,2 | 
[V:1] A4G4 | 
[V:2] c2d2_e2d2- | 
[V:3] A4B4 | 
[V:4] F,4_E,2G,2 | 
[V:1] ^F4G3A | 
[V:2] d4B3c | 
[V:3] A4G4 | 
[V:4] D,4_E,4- | 
[V:1] B4A4 | 
[V:2] d_ed3=ef2 | 
[V:3] G2G2F4 | 
[V:4] E,2G,2D,4 | 
[V:1] G4c4 | 
[V:2] B4f2a2- | 
[V:3] G4A4 | 
[V:4] D4C4 | 
[V:1] d4c4- | 
[V:2] a2g4f2 | 
[V:3] B4A4 | 
[V:4] G,4C4 | 
[V:1] c4=B4 | 
[V:2] g8 | 
[V:3] G8 | 
[V:4] D8 | 
[V:1] c4z4 | 
[V:2] e8 | 
[V:3] z8 | 
[V:4] C4A,2C2 | 
[V:1] z8 | 
[V:2] d4g4 | 
[V:3] z8 | 
[V:4] B,2G,4F,E, | 
[V:1] z8 | 
[V:2] f4e4 | 
[V:3] z8 | 
[V:4] D,2D4^C2 | 
[V:1] A4B2d2- | 
[V:2] f4g4 | 
[V:3] z8 | 
[V:4] D4G,2B,2- | 
[V:1] dcA4c2 | 
[V:2] f4e4 | 
[V:3] z8 | 
[V:4] B,CD2A,4 | 
[V:1] d2f3ec2 | 
[V:2] d4e4 | 
[V:3] z8 | 
[V:4] B,4A,4 | 
[V:1] d2e3dcB | 
[V:2] f2g3fed | 
[V:3] z8 | 
[V:4] z8 | 
[V:1] A2d4^c2 | 
[V:2] c2d2e4 | 
[V:3] z8 | 
[V:4] z4A,4 | 
[V:1] d4z4 | 
[V:2] d8 | 
[V:3] z4G4 | 
[V:4] B,6A,G, | 
[V:1] z8 | 
[V:2] z8 | 
[V:3] F2G2A4 | 
[V:4] A,2G,4F,2 | 
[V:1] z8 | 
[V:2] z8 | 
[V:3] B4A4 | 
[V:4] G,2D4C2 | 
[V:1] z8 | 
[V:2] z4z2c2 | 
[V:3] G4F4 | 
[V:4] _E2D3CA,2 | 
[V:1] z8 | 
[V:2] d2f3ec2 | 
[V:3] z8 | 
[V:4] B,2A,G,F,2A,2 | 
[V:1] z8 | 
[V:2] _e2d3cB2 | 
[V:3] z8 | 
[V:4] G,2B,3G,G,2- | 
[V:1] c4B2d2- | 
[V:2] A4G4 | 
[V:3] z8 | 
[V:4] G,2^F,2G,4 | 
[V:1] d2c2_e2d2- | 
[V:2] z4g4 | 
[V:3] z8 | 
[V:4] A,4G,4 | 
[V:1] dcA2G2B2- | 
[V:2] f4g3f | 
[V:3] z8 | 
[V:4] D,4z4 | 
[V:1] B2AGF2A2 | 
[V:2] d3cABcd | 
[V:3] z8 | 
[V:4] z8 | 
[V:1] G2B2A2B2- | 
[V:2] e2d6- | 
[V:3] z8 | 
[V:4] C,2G,2F,2G,2- | 
[V:1] BGG4^F2 | 
[V:2] d2c2d4 | 
[V:3] G4A4 | 
[V:4] G,F,E,2D,4 | 
[V:1] G4z4 | 
[V:2] B4d4- | 
[V:3] G8 | 
[V:4] z8 | 
[V:1] A6G2 | 
[V:2] d2c2f4 | 
[V:3] F8 | 
[V:4] z4D,4- | 
[V:1] F4E4 | 
[V:2] z8 | 
[V:3] A8 | 
[V:4] D,4C,4 | 
[V:1] z2D3EFG | 
[V:2] f6d2- | 
[V:3] B8 | 
[V:4] B,,8 | 
[V:1] A2F2c4 | 
[V:2] def3ec2 | 
[V:3] A8 | 
[V:4] F,8 | 
[V:1] B2B4A2 | 
[V:2] d2B2c4 | 
[V:3] G4F4 | 
[V:4] z8 | 
[V:1] B6AG | 
[V:2] B8 | 
[V:3] z4G4 | 
[V:4] G,6F,E, | 
[V:1] F2E2F4- | 
[V:2] z4d4- | 
[V:3] A8 | 
[V:4] D,2C,2D,4 | 
[V:1] F2EDG2F2 | 
[V:2] d4B2d2- | 
[V:3] B8- | 
[V:4] z2D,2_E,2D,2 | 
[V:1] G4B4 | 
[V:2] d2G2d3e | 
[V:3] B8 | 
[V:4] _E,4G,4 | 
[V:1] A4z4 | 
[V:2] f8 | 
[V:3] c4d4- | 
[V:4] F,4B,4- | 
[V:1] z8 | 
[V:2] g4z4 | 
[V:3] d4e4 | 
[V:4] B,2A,G,C4 | 
[V:1] A8 | 
[V:2] z8 | 
[V:3] f8 | 
[V:4] D8 | 
[V:1] d6c2 | 
[V:2] z8 | 
[V:3] g8 | 
[V:4] G,8 | 
[V:1] B2AGF2E2 | 
[V:2] z8 | 
[V:3] G4A4 | 
[V:4] z4D,2C,2 | 
[V:1] D4G4 | 
[V:2] g4e4 | 
[V:3] B4c4 | 
[V:4] G,4C,4 | 
[V:1] F4G4- | 
[V:2] d4c4 | 
[V:3] A4G4 | 
[V:4] D,4E,4 | 
[V:1] G2^F2F2E2 | 
[V:2] d8- | 
[V:3] A8 | 
[V:4] D,8 | 
[V:1] G8 ||  
[V:2] d8 ||  
[V:3] G8 ||  
[V:4] G,8 ||  
[V:1]  [K:F] [K:clef=treble][M:3/1]F8F4 | 
[V:2]  [K:F] [K:clef=treble-8][M:3/1]d8A3B | 
[V:3]  [K:F] [K:clef=treble-8][M:3/1]A8F4 | 
[V:4]  [K:F] [K:clef=bass][M:3/1]D,8D,4 | 
[V:1] E4D2C2G4 | 
[V:2] c4d2e2c4 | 
[V:3] G12 | 
[V:4] C,4B,,2C,2_E,4 | 
[V:1] F2EDE2D4C2 | 
[V:2] d4z4z4 | 
[V:3] A8z4 | 
[V:4] D,4C,2D,2A,4 | 
[V:1] D2E2C2F4E2 | 
[V:2] A2c4B2c4 | 
[V:3] A6F2G4 | 
[V:4] D,2C,2F,2D,2C,4 | 
[V:1] F4z4A4 | 
[V:2] z2c2f8 | 
[V:3] F4z4z4 | 
[V:4] C4B,2A,2D4 | 
[V:1] B4c6Bc | 
[V:2] g4e8 | 
[V:3] z4z4A4 | 
[V:4] G,4A,4z4 | 
[V:1] d6cBA2G2 | 
[V:2] d4d3ef2g2 | 
[V:3] B8c4- | 
[V:4] G,8F,2E,2 | 
[V:1] F2G2A2GFE4 | 
[V:2] c4z4z2A2 | 
[V:3] c4c4c4 | 
[V:4] F,2C,2F,3G,A,4 | 
[V:1] D2G4F2G2A2 | 
[V:2] B2G2A4G2d2- | 
[V:3] d12 | 
[V:4] z4D,4G,2F,2 | 
[V:1] B4A2A4G2 | 
[V:2] d2g2e2f2d4 | 
[V:3] d4c2A2B4 | 
[V:4] G,4A,2F,2G,4 | 
[V:1] A4z2A3Bc2- | 
[V:2] z2f2e2f4ed | 
[V:3] A12 | 
[V:4] D,4C,2D,2F,4 | 
[V:1] cBAGF4G2A2- | 
[V:2] c4d4e2fe | 
[V:3] z2G2A3Bc3B | 
[V:4] E,4D,4C,2F,2- | 
[V:1] A2B2A2B4d2 | 
[V:2] dcB2d4g4 | 
[V:3] A2G2F2G4B2 | 
[V:4] F,2G,2D,2D4G,2 | 
[V:1] c2d4f3ed2 | 
[V:2] f2g2f4f3g | 
[V:3] A2B4d3ef2- | 
[V:4] A,2G,2B,4B,4 | 
[V:1] c2d3cB2A4 | 
[V:2] a2d8d2 | 
[V:3] f2f2g2g4^f2 | 
[V:4] A,2B,4G,2D,4 | 
[V:1] G4D2F2G2A2- | 
[V:2] d4g2a2d2f2- | 
[V:3] g2G2B2A2B2c2 | 
[V:4] G,6D,2G,2F,2- | 
[V:1] ABcBAGG4^F2 | 
[V:2] f2g2f2c2d4- | 
[V:3] d2e2d2G2A4 | 
[V:4] F,2C,2D,2E,2D,4 | 
[V:1] G12 |]  
[V:2] d12 |]  
[V:3] G12 |]  
[V:4] G,12 |]  



